icons/glyphs/glyph-filezilla.svg

<?xml version="1.0" encoding="UTF-8" standalone="no"?><svg height="16" viewBox="0 0 4.2333332 4.2333332" width="16" xmlns="http://www.w3.org/2000/svg"><sodipodi:namedview/><metadata><rdf:RDF><cc:Work><dc:format>image/svg+xml</dc:format><dc:type/><dc:title/></cc:Work></rdf:RDF></metadata><path d="m .79354441-.00000002h2.91103299l-.2647888.7935444h-1.984272l-.1323944.52957782h2.910211l-.2647888.7935443-1.2063521 1.2063518c.4196392.064031.7143801.2971008 1.0739573.090456l.2384748-.1858456.1587088.635658c-.793769.7937689-1.5876864-.1591333-2.3814555.3700465l-.5287555-.5287558 1.763889-1.5879109h-1.9489124l-.34455439 1.5879109h-.79354442z" fill="#d0d0d0"/></svg>

<?xml version="1.0" encoding="UTF-8" standalone="no"?>
<!-- Created with Inkscape (http://www.inkscape.org/) -->

<svg
   xmlns:dc="http://purl.org/dc/elements/1.1/"
   xmlns:cc="http://creativecommons.org/ns#"
   xmlns:rdf="http://www.w3.org/1999/02/22-rdf-syntax-ns#"
   xmlns:svg="http://www.w3.org/2000/svg"
   xmlns="http://www.w3.org/2000/svg"
   xmlns:sodipodi="http://sodipodi.sourceforge.net/DTD/sodipodi-0.dtd"
   xmlns:inkscape="http://www.inkscape.org/namespaces/inkscape"
   width="16"
   height="16"
   viewBox="0 0 4.2333332 4.2333332"
   version="1.1"
   id="svg8"
   inkscape:version="0.92+devel (7f3bd2b258, 2017-08-07, custom)"
   sodipodi:docname="glyph-filezilla.svg">
  <defs
     id="defs2">
    <linearGradient
       id="a"
       y1="32"
       y2="16"
       x2="0"
       gradientUnits="userSpaceOnUse"
       gradientTransform="matrix(0.26458333,0,0,0.26458333,-2.0909829,-3.9077387)">
      <stop
         stop-color="#f7abb2"
         id="stop2" />
      <stop
         offset="1"
         stop-color="#f9dce0"
         id="stop4" />
    </linearGradient>
  </defs>
  <sodipodi:namedview
     id="base"
     pagecolor="#002466"
     bordercolor="#ffffff"
     borderopacity="0.38039216"
     inkscape:pageopacity="1"
     inkscape:pageshadow="2"
     inkscape:zoom="36.415999"
     inkscape:cx="10.05339"
     inkscape:cy="7.9162778"
     inkscape:document-units="px"
     inkscape:current-layer="svg8"
     inkscape:document-rotation="0"
     showgrid="false"
     inkscape:showpageshadow="false"
     borderlayer="true"
     inkscape:window-width="1920"
     inkscape:window-height="1027"
     inkscape:window-x="0"
     inkscape:window-y="24"
     inkscape:window-maximized="1"
     units="px" />
  <metadata
     id="metadata5">
    <rdf:RDF>
      <cc:Work
         rdf:about="">
        <dc:format>image/svg+xml</dc:format>
        <dc:type
           rdf:resource="http://purl.org/dc/dcmitype/StillImage" />
        <dc:title />
      </cc:Work>
    </rdf:RDF>
  </metadata>
  <path
     style="fill:#d0d0d0;fill-opacity:1;stroke:none;stroke-width:0.29472154;stroke-linecap:round"
     d="M 0.79354441,-2.0000001e-8 H 3.7045774 L 3.4397886,0.79354438 H 1.4555166 L 1.3231222,1.3231222 h 2.910211 L 3.9685444,2.1166665 2.7621923,3.3230183 c 0.4196392,0.064031 0.7143801,0.2971008 1.0739573,0.090456 L 4.0746244,3.2276287 4.2333332,3.8632867 C 3.4395642,4.6570556 2.6456468,3.7041534 1.8518777,4.2333332 L 1.3231222,3.7045774 3.0870112,2.1166665 H 1.1380988 L 0.79354441,3.7045774 H -1e-8 Z"
     id="rect823"
     inkscape:connector-curvature="0" />
</svg>
